X: 595
T:Maloney's Wife
M:6/8
L:1/8
Q:120
S:from Mike Rafferty
N:Posted to the woodenflute mailing list November 2002
R:Jig
Z:Tom Madden
K:D
|: DFA AFA | AFB AFD | ~G3 FGA | BGE EFE | DFA AFA |
AFA d2A | (3Bcd B A FD |1 AFD D2A:|2 AFD D2f ||
ecA ABA | ecA d2A | BAF G2A | BGE E2f | ecA ABA | ecA d2A |
(3Bcd B AFD |1 AFD D2f:|2 AFD D2d || faf g2e | fdB AFD | ~G3 FGA |
BGE E2d | faf g2e | fdB AFD | (3Bcd B AFD|1 AFD D2d:|2 AFD D3 ||

